X: 1
T: The Last Pint final variation
S:  Lunasa
R: hornpipe
L: 1/8
M: 4/4
K: Gmaj
|: gagd gagd | gagd gagd | gagd gagd | gagd gagd |
 |b2a2 a2g2|  a2g2 g2f2 |e2d2 e2d2 |  B6 b2 |a2 g2 g2 f2 | g2 f2 f2 e2 |e2 d2 B2 A2|
|G8 |
